Yaru++/apps/symbolic/android-symbolic.svg

<svg height="16" width="16" xmlns="http://www.w3.org/2000/svg">
  <path d="m14.176576 6.297207c0-.5092481-.41831-.9275559-.927555-.9275559-.509244 0-.927554.4183078-.927554.9275559v3.864809c0 .509244.41831.927552.927554.927552.509245 0 .927555-.418308.927555-.927552zm-10.821468 0c0-.5092481-.4183078-.9275559-.9275531-.9275559-.5092462 0-.9275549.4183078-.9275549.9275559v3.864809c0 .509244.4183087.927552.9275549.927552.5092453 0 .9275531-.418308.9275531-.927552zm6.511069-4.4195246.654743-1.1821771c.03637-.063656.01364-.1454972-.05002-.1773272-.01819-.00909-.04092-.018178-.06366-.018178-.04547 0-.09094.022734-.113672.068203l-.6638293 1.1958186c-.5410734-.2409843-1.150349-.3773887-1.7914517-.3773887-.6411047 0-1.2503812.1364044-1.7914546.3773887l-.6592902-1.1958186c-.036375-.0636562-.113671-.0863906-.1773263-.0500156-.0636562.036375-.0863906.1136728-.0500156.1773272l.6547453 1.182177c-1.2640209.6547443-2.1142789 1.8960317-2.1142789 3.3237382h8.2752403c0-1.4277065-.850258-2.6689939-2.1097309-3.3237382zm-3.9375596 1.8096401c-.1909668 0-.3455596-.1545937-.3455596-.3455587 0-.1909678.1545928-.3455606.3455596-.3455606.1909669 0 .3455588.1545928.3455588.3455606 0 .190965-.1545919.3455587-.3455588.3455587zm3.8193418 0c-.1909677 0-.3455596-.1545937-.3455596-.3455587 0-.1909678.1545919-.3455606.3455596-.3455606.1909659 0 .3455588.1545928.3455588.3455606 0 .190965-.1545929.3455587-.3455588.3455587zm-6.0472916 1.8414702v5.9972723c0 .554716.4455909 1.000307 1.000304 1.000307h.6638381v2.046073c0 .509247.4183087.927555.9275549.927555.5092453 0 .927554-.418308.927554-.927555v-2.046073h1.2367386v2.046073c0 .509247.4183097.927555.9275549.927555s.9275529-.418308.9275529-.927555v-2.046073h.663838c.554715 0 1.000305-.445591 1.000305-1.000307v-5.9972723z" fill="#808080" stroke-width=".083333"/>
</svg>

<?xml version="1.0" encoding="UTF-8" standalone="no"?>
<svg
   xmlns:dc="http://purl.org/dc/elements/1.1/"
   xmlns:cc="http://creativecommons.org/ns#"
   xmlns:rdf="http://www.w3.org/1999/02/22-rdf-syntax-ns#"
   xmlns:svg="http://www.w3.org/2000/svg"
   xmlns="http://www.w3.org/2000/svg"
   xmlns:sodipodi="http://sodipodi.sourceforge.net/DTD/sodipodi-0.dtd"
   xmlns:inkscape="http://www.inkscape.org/namespaces/inkscape"
   width="16"
   height="16"
   version="1.1"
   id="svg10"
   sodipodi:docname="android-file-transfer.svg"
   inkscape:version="0.92.3 (2405546, 2018-03-11)">
  <metadata
     id="metadata16">
    <rdf:RDF>
      <cc:Work
         rdf:about="">
        <dc:format>image/svg+xml</dc:format>
        <dc:type
           rdf:resource="http://purl.org/dc/dcmitype/StillImage" />
        <dc:title></dc:title>
      </cc:Work>
    </rdf:RDF>
  </metadata>
  <defs
     id="defs14" />
  <sodipodi:namedview
     pagecolor="#ffffff"
     bordercolor="#666666"
     borderopacity="1"
     objecttolerance="10"
     gridtolerance="10"
     guidetolerance="10"
     inkscape:pageopacity="0"
     inkscape:pageshadow="2"
     inkscape:window-width="1920"
     inkscape:window-height="1009"
     id="namedview12"
     showgrid="false"
     inkscape:zoom="14.75"
     inkscape:cx="-4.1016949"
     inkscape:cy="8"
     inkscape:window-x="0"
     inkscape:window-y="34"
     inkscape:window-maximized="1"
     inkscape:current-layer="svg10" />
  <path
     class="st0"
     d="m 14.176576,6.297207 c 0,-0.5092481 -0.41831,-0.9275559 -0.927555,-0.9275559 -0.509244,0 -0.927554,0.4183078 -0.927554,0.9275559 v 3.864809 c 0,0.509244 0.41831,0.927552 0.927554,0.927552 0.509245,0 0.927555,-0.418308 0.927555,-0.927552 z m -10.821468,0 C 3.355108,5.7879589 2.9368002,5.3696511 2.4275549,5.3696511 1.9183087,5.3696511 1.5,5.7879589 1.5,6.297207 v 3.864809 c 0,0.509244 0.4183087,0.927552 0.9275549,0.927552 0.5092453,0 0.9275531,-0.418308 0.9275531,-0.927552 z M 9.866177,1.8776824 10.52092,0.6955053 c 0.03637,-0.063656 0.01364,-0.1454972 -0.05002,-0.1773272 -0.01819,-0.00909 -0.04092,-0.018178 -0.06366,-0.018178 -0.04547,0 -0.09094,0.022734 -0.113672,0.068203 L 9.6297387,1.7640217 C 9.0886653,1.5230374 8.4793897,1.386633 7.838287,1.386633 c -0.6411047,0 -1.2503812,0.1364044 -1.7914546,0.3773887 L 5.3875422,0.5682031 C 5.3511672,0.5045469 5.2738712,0.4818125 5.2102159,0.5181875 5.1465597,0.5545625 5.1238253,0.6318603 5.1602003,0.6955147 l 0.6547453,1.182177 C 4.5509247,2.532436 3.7006667,3.7737234 3.7006667,5.2014299 h 8.2752403 c 0,-1.4277065 -0.850258,-2.6689939 -2.1097309,-3.3237382 z M 5.9286174,3.6873225 c -0.1909668,0 -0.3455596,-0.1545937 -0.3455596,-0.3455587 0,-0.1909678 0.1545928,-0.3455606 0.3455596,-0.3455606 0.1909669,0 0.3455588,0.1545928 0.3455588,0.3455606 0,0.190965 -0.1545919,0.3455587 -0.3455588,0.3455587 z m 3.8193418,0 c -0.1909677,0 -0.3455596,-0.1545937 -0.3455596,-0.3455587 0,-0.1909678 0.1545919,-0.3455606 0.3455596,-0.3455606 0.1909659,0 0.3455588,0.1545928 0.3455588,0.3455606 0,0.190965 -0.1545929,0.3455587 -0.3455588,0.3455587 z M 3.7006676,5.5287927 v 5.9972723 c 0,0.554716 0.4455909,1.000307 1.000304,1.000307 h 0.6638381 v 2.046073 c 0,0.509247 0.4183087,0.927555 0.9275549,0.927555 0.5092453,0 0.927554,-0.418308 0.927554,-0.927555 v -2.046073 h 1.2367386 v 2.046073 c 0,0.509247 0.4183097,0.927555 0.9275549,0.927555 0.5092452,0 0.9275529,-0.418308 0.9275529,-0.927555 v -2.046073 h 0.663838 c 0.554715,0 1.000305,-0.445591 1.000305,-1.000307 V 5.5287927 Z"
     style="fill:#808080;fill-opacity:1;stroke-width:0.08333338;enable-background:new"
     id="path31"
     inkscape:connector-curvature="0" />
</svg>
